symbolic/64x64/places/folder-cyan-onedrive.svg

<svg xmlns="http://www.w3.org/2000/svg" width="64" height="64" version="1">
 <rect style="opacity:0.2" width="56" height="36" x="4" y="22" rx="2.8" ry="2.8"/>
 <path style="fill:#0096aa" d="M 4,46.2 C 4,47.751 5.2488,49 6.8,49 H 57.2 C 58.751,49 60,47.751 60,46.2 V 15.8 C 60,14.249 58.751,13 57.2,13 H 32 C 27.8,13 26.4,7 22.2,7 H 6.8 C 5.2488,7 4,8.2488 4,9.8"/>
 <rect style="opacity:0.2" width="56" height="36" x="4" y="20" rx="2.8" ry="2.8"/>
 <rect style="fill:#e4e4e4" width="48" height="22" x="8" y="16" rx="2.8" ry="2.8"/>
 <rect style="fill:#00bcd4" width="56" height="36" x="4" y="21" rx="2.8" ry="2.8"/>
 <path style="opacity:0.1;fill:#ffffff" d="M 6.8008,7 C 5.2496,7 4,8.2496 4,9.8008 V 10.801 C 4,9.2496 5.2496,8 6.8008,8 H 22.199 C 26.399,8 27.8,14 32,14 H 57.199 C 58.75,14 60,15.25 60,16.801 V 15.801 C 60,14.25 58.75,13 57.199,13 H 32 C 27.8,13 26.399,7 22.199,7 Z"/>
 <path style="fill:#00424a" d="M 33 31 A 6 6 0 0 0 27.472656 34.667969 C 26.722316 34.237991 25.873118 34.00166 25 34 C 22.238588 34 20 36.238589 20 39 C 20.0024 39.337469 20.03914 39.673821 20.109375 40.003906 C 20.072935 40.002106 20.03648 40.0008 20 40 C 17.790872 40 16 41.790872 16 44 C 16 46.209128 17.790872 48 20 48 C 20.768147 47.9982 21.519285 47.774814 22.164062 47.357422 C 22.114479 47.146925 22.073324 46.932891 22.046875 46.714844 C 22.045445 46.70374 22.044337 46.692762 22.042969 46.681641 C 22.017057 46.457397 22 46.230681 22 46 C 22 43.29774 23.861683 41.079291 26.337891 40.339844 C 26.386561 40.148138 26.464011 39.968756 26.527344 39.783203 C 26.528423 39.780093 26.528329 39.776592 26.529297 39.773438 C 26.53839 39.743779 26.544211 39.712688 26.554688 39.683594 C 26.561115 39.665292 26.570467 39.648524 26.578125 39.630859 C 26.579114 39.628155 26.581039 39.625749 26.582031 39.623047 C 26.696265 39.311978 26.831048 39.014229 26.984375 38.724609 C 26.985975 38.721509 26.986581 38.717944 26.988281 38.714844 C 26.988958 38.713551 26.989381 38.712102 26.990234 38.710938 C 26.990234 38.710938 26.992188 38.708984 26.992188 38.708984 C 28.154553 36.526048 30.365646 35 33 35 A 2.0002 2.0002 0 0 0 33.001953 35 C 35.429543 35.001194 37.596251 36.291435 38.857422 38.265625 A 6 6 0 0 0 39 37 A 6 6 0 0 0 33 31 z M 33 37 C 30.238588 37 28 39.238588 28 42 C 25.790872 42 24 43.790872 24 46 C 24 48.209128 25.790872 50 28 50 L 45 50 C 46.656846 50 48 48.656847 48 47 C 48 45.343154 46.656846 44 45 44 C 44.656249 44.0017 44.315349 44.062508 43.992188 44.179688 C 43.996187 44.119867 43.9988 44.05994 44 44 C 44 41.790872 42.209128 40 40 40 C 39.222951 40.000358 38.462823 40.227038 37.8125 40.652344 C 37.208387 38.493816 35.241481 37.001102 33 37 z"/>
</svg>

<svg xmlns="http://www.w3.org/2000/svg" width="64" height="64" version="1"><rect style="opacity:.2" width="56" height="36" x="4" y="22" rx="2.8" ry="2.8"/><path style="fill:#0096aa" d="M4 46.2C4 47.751 5.249 49 6.8 49h50.4c1.551 0 2.8-1.249 2.8-2.8V15.8c0-1.551-1.249-2.8-2.8-2.8H32c-4.2 0-5.6-6-9.8-6H6.8A2.794 2.794 0 0 0 4 9.8"/><rect style="opacity:.2" width="56" height="36" x="4" y="20" rx="2.8" ry="2.8"/><rect style="fill:#e4e4e4" width="48" height="22" x="8" y="16" rx="2.8" ry="2.8"/><rect style="fill:#00bcd4" width="56" height="36" x="4" y="21" rx="2.8" ry="2.8"/><path style="opacity:.1;fill:#fff" d="M6.8 7C5.25 7 4 8.25 4 9.8v1.001A2.795 2.795 0 0 1 6.8 8H22.2c4.2 0 5.601 6 9.801 6h25.199A2.796 2.796 0 0 1 60 16.801v-1A2.796 2.796 0 0 0 57.199 13H32c-4.2 0-5.601-6-9.801-6z"/><path style="fill:#00424a" d="M33 31a6 6 0 0 0-5.527 3.668c-.75-.43-1.6-.666-2.473-.668a5 5 0 0 0-5 5c.002.337.04.674.11 1.004A4 4 0 1 0 20 48a4 4 0 0 0 2.164-.643c-.05-.21-.09-.424-.117-.642l-.004-.033A5.925 5.925 0 0 1 22 46c0-2.702 1.862-4.92 4.338-5.66.049-.192.126-.371.19-.557l.001-.01c.01-.03.015-.06.026-.09.006-.018.015-.034.023-.052l.004-.008c.114-.311.249-.609.402-.898l.004-.01.002-.004.002-.002C28.155 36.526 30.366 35 33 35a2 2 0 0 0 .002 0c2.428.001 4.594 1.291 5.855 3.266A6 6 0 0 0 39 37a6 6 0 0 0-6-6zm0 6a5 5 0 0 0-5 5 4 4 0 0 0 0 8h17a3 3 0 0 0 0-6 3 3 0 0 0-1.008.18c.004-.06.007-.12.008-.18a4 4 0 0 0-6.188-3.348A5 5 0 0 0 33 37z"/></svg>
